build/category/BonusRubleOutline.svg

<svg xmlns="http://www.w3.org/2000/svg" fill="none" viewBox="0 0 24 24" focusable="false"><path d="M0 0H24V24H0z"/><path fill="#74767B" fill-rule="evenodd" d="M17.1014 6.34543C17.3849 5.83739 17.4959 5.2263 17.3629 4.60066L17.3449 4.51632C17.1683 3.68603 16.5603 3.01405 15.7517 2.75555C14.2973 2.29057 12.7931 2.88308 12 4.05244C11.2069 2.88308 9.70266 2.29057 8.24827 2.75555C7.43971 3.01405 6.83169 3.68603 6.65508 4.51632L6.63714 4.60066C6.50406 5.2263 6.61509 5.83738 6.89859 6.34543C5.28868 6.3989 4 7.72083 4 9.34375L4 17C4 18.6569 5.34315 20 7 20L17 20C18.6569 20 20 18.6569 20 17L20 9.34375C20 7.72083 18.7113 6.39891 17.1014 6.34543ZM9.09589 6.33744L11.3439 6.33744L11.3441 6.33612L11.2497 5.63958C11.0818 4.40018 9.83545 3.61294 8.64414 3.99381C8.28 4.11023 8.00617 4.41286 7.92663 4.7868L7.90869 4.87114C7.74807 5.62624 8.3239 6.33744 9.09589 6.33744ZM14.9041 6.33744L12.6561 6.33744L12.6559 6.33612L12.7503 5.63958C12.9182 4.40018 14.1645 3.61294 15.3559 3.99381C15.72 4.11023 15.9938 4.41286 16.0734 4.7868L16.0913 4.87114C16.2519 5.62624 15.6761 6.33744 14.9041 6.33744ZM17 7.64375C17.9389 7.64375 18.7 8.40486 18.7 9.34375L18.7 11.9827L5.3 11.9827L5.3 9.34375C5.3 8.40486 6.06112 7.64375 7 7.64375L17 7.64375ZM5.3 13.2827L5.3 17C5.3 17.9389 6.06112 18.7 7 18.7L17 18.7C17.9389 18.7 18.7 17.9389 18.7 17L18.7 13.2827L5.3 13.2827Z"/></svg>

<svg xmlns="http://www.w3.org/2000/svg" fill="none" viewBox="0 0 24 24" focusable="false"><path fill="#74767B" fill-rule="evenodd" d="M17.1 6.34c.28-.51.39-1.12.26-1.74l-.02-.09c-.18-.83-.78-1.5-1.59-1.76-1.46-.46-2.96.13-3.75 1.3-.8-1.17-2.3-1.76-3.76-1.3-.81.26-1.41.93-1.59 1.76l-.02.09c-.13.62-.02 1.23.26 1.74a2.994 2.994 0 0 0-2.89 3V17c0 1.65 1.34 3 3 3h10c1.65 0 3-1.35 3-3V9.34c0-1.62-1.29-2.95-2.9-3m-8.01-.01h2.25l-.1-.7c-.16-1.23-1.41-2.02-2.6-1.64-.37.12-.64.42-.72.79l-.02.09c-.16.75.42 1.46 1.19 1.46m5.81 0h-2.25l.1-.7c.16-1.23 1.41-2.02 2.6-1.64.37.12.64.42.72.79l.02.09c.16.75-.42 1.46-1.19 1.46M17 7.64c.93 0 1.7.76 1.7 1.7v2.64H5.29V9.34c0-.94.77-1.7 1.71-1.7zM5.29 13.28V17c0 .93.77 1.7 1.71 1.7h10c.93 0 1.7-.77 1.7-1.7v-3.72z"/></svg>
